_includes/icons/ios-video-file.svg

<svg fill="#666" height="50" viewBox="0 0 50 50" width="50" xmlns="http://www.w3.org/2000/svg"><path d="m7 2v46h36v-32.589844l-13.816406-13.410156zm2 2h19v13h13v29h-32zm21 1.578125 9.707031 9.421875h-9.707031zm-9.054687 16.421875c-.53125.03125-.945313.46875-.945313 1v13c0 .347656.183594.671875.480469.855469.300781.179687.671875.191406.980469.03125l11.554687-6c.324219-.167969.527344-.492188.539063-.855469.011718-.359375-.171875-.699219-.480469-.886719l-11.558594-7c-.171875-.105468-.371094-.152343-.570312-.144531zm1.054687 2.777344 8.515625 5.15625-8.515625 4.421875z"/></svg>

<svg xmlns="http://www.w3.org/2000/svg" viewBox="0 0 50 50" width="50" height="50" fill="#666"><path d="M 7 2 L 7 48 L 43 48 L 43 15.410156 L 29.183594 2 Z M 9 4 L 28 4 L 28 17 L 41 17 L 41 46 L 9 46 Z M 30 5.578125 L 39.707031 15 L 30 15 Z M 20.945313 22 C 20.414063 22.03125 20 22.46875 20 23 L 20 36 C 20 36.347656 20.183594 36.671875 20.480469 36.855469 C 20.78125 37.035156 21.152344 37.046875 21.460938 36.886719 L 33.015625 30.886719 C 33.339844 30.71875 33.542969 30.394531 33.554688 30.03125 C 33.566406 29.671875 33.382813 29.332031 33.074219 29.144531 L 21.515625 22.144531 C 21.34375 22.039063 21.144531 21.992188 20.945313 22 Z M 22 24.777344 L 30.515625 29.933594 L 22 34.355469 Z"/></svg>
